app/src/main/assets/symbols/shopping/books.svg

<?xml version="1.0" encoding="UTF-8" standalone="no"?>
<svg
   xmlns:dc="http://purl.org/dc/elements/1.1/"
   xmlns:cc="http://creativecommons.org/ns#"
   xmlns:rdf="http://www.w3.org/1999/02/22-rdf-syntax-ns#"
   xmlns:svg="http://www.w3.org/2000/svg"
   xmlns="http://www.w3.org/2000/svg"
   id="svg2"
   viewBox="0 0 16 16"
   height="16"
   width="16"
   version="1.1">
  <metadata
     id="metadata8">
    <rdf:RDF>
      <cc:Work
         rdf:about="">
        <dc:format>image/svg+xml</dc:format>
        <dc:type
           rdf:resource="http://purl.org/dc/dcmitype/StillImage" />
        <dc:title></dc:title>
      </cc:Work>
    </rdf:RDF>
  </metadata>
  <defs
     id="defs6" />
  <rect
     width="16"
     height="16"
     x="0"
     y="0"
     id="rect4174"
     style="visibility:hidden;fill:none;stroke:none" />
  <path
     id="path4176"
     d="M 3.5917969,2.8769531 C 3.39328,2.8849528 3.1958998,2.9246486 3,3 l 0,8 c 0,0 3.1875,-0.125 4,3 L 7,5.5996094 C 6.38001,4.2940108 4.9814151,2.8209552 3.5917969,2.8769531 Z M 7,14 C 4.9375,12.40625 2,12 2,12 L 2,4.4003906 1,4 l 0,9 6,2 2,0 6,-2 0,-9 -1,0.4003906 0,8.0000004 L 9,14 C 8.333333,13.74532 7.556181,13.790637 7,14 Z M 13,3 C 11.00748,2.8934496 8.7073046,4.0896818 7.5,5.1191406 l 0,8.4648434 c 1.1147712,-0.924639 3.113583,-2.141273 5.5,-2.384765 z"
     style="fill:#ac39ac;fill-opacity:1;stroke:none" />
</svg>

<?xml version="1.0" encoding="UTF-8"?>
<svg version="1.1" viewBox="0 0 16 16" xmlns="http://www.w3.org/2000/svg" xmlns:cc="http://creativecommons.org/ns#" xmlns:dc="http://purl.org/dc/elements/1.1/" xmlns:rdf="http://www.w3.org/1999/02/22-rdf-syntax-ns#">
<metadata>
<rdf:RDF>
<cc:Work rdf:about="">
<dc:format>image/svg+xml</dc:format>
<dc:type rdf:resource="http://purl.org/dc/dcmitype/StillImage"/>
<dc:title/>
</cc:Work>
</rdf:RDF>
</metadata>
<rect width="16" height="16" fill="none" visibility="hidden"/>
<path d="m3.5918 2.877c-0.19852 0.0079997-0.3959 0.047696-0.5918 0.12305v8s3.1875-0.125 4 3v-8.4004c-0.61999-1.3056-2.0186-2.7787-3.4082-2.7227zm3.4082 11.123c-2.0625-1.5938-5-2-5-2v-7.5996l-1-0.40039v9l6 2h2l6-2v-9l-1 0.40039v8l-5 1.5996c-0.66667-0.25468-1.4438-0.20936-2 0zm6-11c-1.9925-0.10655-4.2927 1.0897-5.5 2.1191v8.4648c1.1148-0.92464 3.1136-2.1413 5.5-2.3848z" fill="#ac39ac"/>
</svg>
